X: 69
T: String Quartet No. 16 in F Major, Op. 135 mvt 2
C: Ludwig van Beethoven
%%abc-version 2.0
%%abcx-abcm2ps-target-version 5.9.1 (29 Sep 2008)
%%abc-creator hum2abc beta
%%abcx-conversion-date 2021/01/27 10:01:09
%%abc-edited-by Craig Stuart Sapp
%%abcx-initial-encoding-date 2004/09/08/
%%gracespace 0 6 6
%%humdrum-veritas 1258226046
%%humdrum-veritas-data 933744264
%%linebreak <none>
%%barnumbers 0
L: 1/4
M: 3/4
N: Derived from quartet16-2.krn
Q: "Vivace" 3/4=108
%%staves [1 2 3 4]
V: 1 clef=treble
V: 2 clef=treble
V: 3 clef=alto
V: 4 clef=bass
K: F
[V:1] z [I:setbarnb 1]| 
[V:2] C- | 
[V:3] z | 
[V:4] z | 
[V:1] zA2- | 
[V:2] C2C- | 
[V:3] F,3 | 
[V:4] .F,,z.A,, | 
[V:1] AG2- | 
[V:2] C2C- | 
[V:3] E,3 | 
[V:4] .B,,z.C, | 
[V:1] GF2- | 
[V:2] C2C- | 
[V:3] F,3 | 
[V:4] D,zC, | 
[V:1] FG2- | 
[V:2] C2C- | 
[V:3] E,3 | 
[V:4] B,,zG,, | 
[V:1] GA2- | 
[V:2] C2C- | 
[V:3] F,3 | 
[V:4] F,,zA,, | 
[V:1] AG2- | 
[V:2] C2C | 
[V:3] E,3 | 
[V:4] B,,zC, | 
[V:1] .G.F.G | 
[V:2] .A,.A,.E | 
[V:3] .F,.F,.E, | 
[V:4] .D,.D,,.C,, | 
[V:1] .Fzc'- | 
[V:2] .A,.f.g | 
[V:3] .F,.A.e | 
[V:4] .F,,.D.C | 
[V:1] c'2c'- | 
[V:2] .fa2- | 
[V:3] .A.F,F- | 
[V:4] .FzA, | 
[V:1] c'2c'- | 
[V:2] ag2- | 
[V:3] FEB | 
[V:4] B,zC | 
[V:1] c'2c'- | 
[V:2] gf2- | 
[V:3] AA,A | 
[V:4] DzC | 
[V:1] c'2c'- | 
[V:2] fg2- | 
[V:3] DBE | 
[V:4] B,zG, | 
[V:1] c'2c'- | 
[V:2] ga2- | 
[V:3] ACF- | 
[V:4] F,zA, | 
[V:1] c'2c'- | 
[V:2] ag2- | 
[V:3] FE,E | 
[V:4] B,zC | 
[V:1] .c'.d'.e' | 
[V:2] g.f.g | 
[V:3] A,AC | 
[V:4] DD,C, | 
[V:1] .f'!accent!_E2 ]|:  
[V:2] .f!accent!_E2 ]|:  
[V:3] F,!accent!_E,2 ]|:  
[V:4] F,!accent!_E,,2 ]|:  
[V:1] z3 | 
[V:2] z3 | 
[V:3] z_E,2 | 
[V:4] z_E,,2 | 
[V:1] z3 | 
[V:2] z3 | 
[V:3] _E,2E, | 
[V:4] _E,,2E,, | 
[V:1] z_E2 | 
[V:2] z_E2 | 
[V:3] z_E,2 | 
[V:4] z_E,,2 | 
[V:1] _E2E | 
[V:2] _E2E | 
[V:3] _E,2E, | 
[V:4] _E,,2E,, | 
[V:1] z_E2 | 
[V:2] z_E2 | 
[V:3] z_E,2 | 
[V:4] z_E,,2 | 
[V:1] z_E2 | 
[V:2] z_E2 | 
[V:3] z_E,2 | 
[V:4] z_E,,2 | 
[V:1] z=E2 | 
[V:2] z=E2 | 
[V:3] z=E,2 | 
[V:4] z=E,,2 | 
[V:1] zE2 | 
[V:2] zE2 | 
[V:3] zE,2 | 
[V:4] zC,,2- | 
[V:1] zA2- | 
[V:2] zzF- | 
[V:3] F,C,-[C,-A,] | 
[V:4] C,,2C,,- | 
[V:1] AG2- | 
[V:2] F2E | 
[V:3] [C,=B,]C,-[C,-C] | 
[V:4] C,,2C,,- | 
[V:1] GF2- | 
[V:2] A,2_A, | 
[V:3] [C,D]C,-[C,-C] | 
[V:4] C,,2C,,- | 
[V:1] FG2- | 
[V:2] D2E- | 
[V:3] [C,=B,]C,[_D,_B,] | 
[V:4] C,,2C,,- | 
[V:1] GA2- | 
[V:2] EA,F- | 
[V:3] [C,A,]C,-[C,-A,] | 
[V:4] C,,2C,,- | 
[V:1] AG2- | 
[V:2] FFE | 
[V:3] [C,=B,]C,-[C,-C] | 
[V:4] C,,2C,,- | 
[V:1] G.F.G | 
[V:2] _A,-[A,D][G,E] | 
[V:3] [C,=B,]C,-[C,-_B,] | 
[V:4] C,,2C,,- | 
[V:1] .Fzz | 
[V:2] A,zz | 
[V:3] [C,A,].F,G,- | 
[V:4] C,,.F,,G,,- | 
[V:1] .fz.a | 
[V:2] .Fz.A | 
[V:3] G,A,2- | 
[V:4] G,,A,,2- | 
[V:1] .bzc' | 
[V:2] .Bzc | 
[V:3] A,G,2- | 
[V:4] A,,G,,2- | 
[V:1] d'zc' | 
[V:2] dzc | 
[V:3] G,F,2- | 
[V:4] G,,F,,2- | 
[V:1] bzg | 
[V:2] BzG | 
[V:3] F,G,2- | 
[V:4] F,,G,,2- | 
[V:1] fza | 
[V:2] FzA | 
[V:3] G,A,2- | 
[V:4] G,,A,,2- | 
[V:1] bzc' | 
[V:2] Bzc | 
[V:3] A,G,2- | 
[V:4] A,,G,,2- | 
[V:1] d'zc' | 
[V:2] dz[Ec] | 
[V:3] G,.F,.G, | 
[V:4] G,,.F,,.G,, | 
[V:1] .c'.c'._e' | 
[V:2] .[Ac].c.A | 
[V:3] .F,.A,.F, | 
[V:4] .F,,zz | 
[V:1] .d'zz | 
[V:2] .Fzz | 
[V:3] B,zz | 
[V:4] z.F,,.G,, | 
[V:1] z.e'.f' | 
[V:2] z.[Fd].[Fd] | 
[V:3] z.B,.B, | 
[V:4] .F,,zz | 
[V:1] .c'zz | 
[V:2] Afg | 
[V:3] FFG | 
[V:4] z.F,,._E,, | 
[V:1] zd'c' | 
[V:2] ^fba | 
[V:3] ^FGA | 
[V:4] .D,,.=E,,^F,, | 
[V:1] .c'.b.a | 
[V:2] .a.g.=f | 
[V:3] DEC | 
[V:4] G,,G,,A,, | 
[V:1] ab.g | 
[V:2] fd[Be] | 
[V:3] DG,C | 
[V:4] B,,B,,C, | 
[V:1] .a.f.g | 
[V:2] .A.F.G | 
[V:3] Czz | 
[V:4] F,,zz | 
[V:1] fzz | 
[V:2] Fzz | 
[V:3] z.A,.C | 
[V:4] [K:clef=tenor]z.C._E | 
[V:1] zfg | 
[V:2] zFG | 
[V:3] B,zz | 
[V:4] .Dzz | 
[V:1] fzz | 
[V:2] Fzz | 
[V:3] zB,B, | 
[V:4] z=EF | 
[V:1] zfg | 
[V:2] zFG | 
[V:3] A,zz | 
[V:4] Czz | 
[V:1] f^fg | 
[V:2] F^FG | 
[V:3] zCB, | 
[V:4] z_ED | 
[V:1] ggc' | 
[V:2] GGc | 
[V:3] .B,.A,.G, | 
[V:4] .D.C.B, | 
[V:1] c'c'c' | 
[V:2] ccc | 
[V:3] F,G,.E, | 
[V:4] A,B,.G, | 
[V:1] .c'.b.a | 
[V:2] .c.C.c | 
[V:3] .F,.E.F | 
[V:4] .A,.G,.A, | 
[V:1] ab.g | 
[V:2] c[Gd].E | 
[V:3] DD,.E, | 
[V:4] B,[K:clef=bass]B,,.C, | 
[V:1] ga.f | 
[V:2] BA.[FA] | 
[V:3] E,F,.A, | 
[V:4] .C,.C,,.C,, | 
[V:1] ef.g | 
[V:2] GF.E | 
[V:3] B,A,.G, | 
[V:4] C,,C,,C,, | 
[V:1] ef.g | 
[V:2] .B.B,.B | 
[V:3] G,F,.E, | 
[V:4] C,,D,,.E,, | 
[V:1] ccc | 
[V:2] .A.G.F | 
[V:3] .A,.B,.C | 
[V:4] .F,,.G,,.A,, | 
[V:1] ef.g | 
[V:2] B,BB | 
[V:3] G,F,.E, | 
[V:4] C,,D,,.E,, | 
[V:1] ccc | 
[V:2] .A.G.F | 
[V:3] .A,.B,.C | 
[V:4] .F,,.G,,.A,, | 
[V:1] ef.g | 
[V:2] B,BB | 
[V:3] G,F,.E, | 
[V:4] C,,D,,.E,, | 
[V:1] ccc | 
[V:2] .A.G.F | 
[V:3] .A,.B,.C | 
[V:4] .F,,.G,,.A,, | 
[V:1] ef.g |[1 
[V:2] B,BB | 
[V:3] G,F,.E, | 
[V:4] C,,D,,.E,, | 
[V:1] c!accent!_E2 :|][2 
[V:2] A!accent!_E2 :|]  
[V:3] F,!accent!_E,2 :|]  
[V:4] F,,!accent!_E,,2 :|]  
[V:1] cF/E/F/G/ | 
[V:2] Azz | 
[V:3] F,zz | 
[V:4] F,,zz | 
[V:1] Acc | 
[V:2] C[FA][FA] | 
[V:3] F,F,/E,/F,/G,/ | 
[V:4] F,,F,,/E,,/F,,/G,,/ | 
[V:1] ccc | 
[V:2] [FA][FA][FA] | 
[V:3] .A,.B,.C | 
[V:4] .A,,.B,,.C, | 
[V:1] ccc | 
[V:2] [FA][FA][FA] | 
[V:3] .D.E.F | 
[V:4] .D,.E,.F, | 
[V:1] ccc | 
[V:2] [FA][FA][FA] | 
[V:3] .G.A.B | 
[V:4] .G,.A,.B, | 
[V:1] .c.d.e | 
[V:2] [FA]FF | 
[V:3] cAA | 
[V:4] CCC | 
[V:1] .f.g.a | 
[V:2] FFF | 
[V:3] AAA | 
[V:4] CCC | 
[V:1] .b.G,.a | 
[V:2] EEE | 
[V:3] GGG | 
[V:4] CCC | 
[V:1] .b.B.c' | 
[V:2] EEE | 
[V:3] GGG | 
[V:4] CCC | 
[V:1] .aF/E/F/G/ | 
[V:2] [FA][Af][Af] | 
[V:3] ccc | 
[V:4] F,CC | 
[V:1] .A.B.c | 
[V:2] [Af][Af][Af] | 
[V:3] ccc | 
[V:4] CCC | 
[V:1] .d.e.f | 
[V:2] [Af][Af][Af] | 
[V:3] ccc | 
[V:4] CCC | 
[V:1] .g.a.b | 
[V:2] [Af][Af][Af] | 
[V:3] ccc | 
[V:4] CCC | 
[V:1] c'd'e' | 
[V:2] [Ge][Ge][Ge] | 
[V:3] ccc | 
[V:4] CCC | 
[V:1] f'g'a' | 
[V:2] [Ge][Ge][Ge] | 
[V:3] ccc | 
[V:4] CCC | 
[V:1] b'ca | 
[V:2] [Ge][Ge][Ge] | 
[V:3] ccc | 
[V:4] CCC | 
[V:1] bcc' | 
[V:2] [Ge][Ge][Ge] | 
[V:3] ccc | 
[V:4] CCC | 
[V:1] azz | 
[V:2] [Af]zz | 
[V:3] cD,/C,/D,/E,/ | 
[V:4] CD,,/C,,/D,,/E,,/ | 
[V:1] ze/d/e/f/ | 
[V:2] zE/D/E/F/ | 
[V:3] F,zz | 
[V:4] F,,zz | 
[V:1] gzz | 
[V:2] Gzz | 
[V:3] zF,/E,/F,/G,/ | 
[V:4] zF,,/E,,/F,,/G,,/ | 
[V:1] zg/f/g/a/ | 
[V:2] zG/F/G/A/ | 
[V:3] A,zz | 
[V:4] A,,zz | 
[V:1] bzz | 
[V:2] Bzz | 
[V:3] zA,/G,/A,/B,/ | 
[V:4] zA,,/G,,/A,,/B,,/ | 
[V:1] zg/f/g/a/ | 
[V:2] zG/F/G/A/ | 
[V:3] Czz | 
[V:4] C,zz | 
[V:1] bza | 
[V:2] Bzf | 
[V:3] Fzc | 
[V:4] [K:clef=tenor]DzD | 
[V:1] a2^g | 
[V:2] e3 | 
[V:3] c2=B | 
[V:4] E3 | 
[V:1] azz | 
[V:2] .Fa/^g/a/=b/ | 
[V:3] .AA/^G/A/=B/ | 
[V:4] [K:clef=bass]F,,3- | 
[V:1] z=g/f/g/a/ | 
[V:2] c'=G/F/G/A/ | 
[V:3] czz | 
[V:4] F,,3 | 
[V:1] bza | 
[V:2] Bzf | 
[V:3] FzF | 
[V:4] D,,z[K:clef=tenor]D | 
[V:1] a2^g | 
[V:2] e3 | 
[V:3] c2=B | 
[V:4] E3 | 
[V:1] azg | 
[V:2] eze | 
[V:3] czc | 
[V:4] CzC | 
[V:1] g2^f | 
[V:2] d3 | 
[V:3] =B2A | 
[V:4] D3 | 
[V:1]  [K:G] [Bg]G/F/G/A/ | 
[V:2]  [K:G] d[db][db] | 
[V:3]  [K:G] G[GB][GB] | 
[V:4]  [K:G] G,DD | 
[V:1] .B.c.d | 
[V:2] [db][db][db] | 
[V:3] [GB][GB][GB] | 
[V:4] DDD | 
[V:1] .e.f.g | 
[V:2] [db][db][db] | 
[V:3] [GB][GB][GB] | 
[V:4] DDD | 
[V:1] .a.b.c' | 
[V:2] [dc'][dc'][dc'] | 
[V:3] [FA][FA][FA] | 
[V:4] DDD | 
[V:1] d'e'f' | 
[V:2] [dc'][dc'][dc'] | 
[V:3] [FA][FA][FA] | 
[V:4] DDD | 
[V:1] g'a'b' | 
[V:2] [dc'][dc'][dc'] | 
[V:3] [FA][FA][FA] | 
[V:4] DDD | 
[V:1] c''DB | 
[V:2] [dc'][dc'][dc'] | 
[V:3] [FA][FA][FA] | 
[V:4] DDD | 
[V:1] cDd | 
[V:2] [dc'][dc'][dc'] | 
[V:3] [FA][FA][FA] | 
[V:4] DDD | 
[V:1] BG/F/G/A/ | 
[V:2] [db][db][db] | 
[V:3] [GB][GB][GB] | 
[V:4] G,DD | 
[V:1] .B.c.d | 
[V:2] [db][db][db] | 
[V:3] [GB][GB][GB] | 
[V:4] DDD | 
[V:1] efg | 
[V:2] [db][db][db] | 
[V:3] [GB][GB][GB] | 
[V:4] DDD | 
[V:1] abc' | 
[V:2] [db][db][db] | 
[V:3] [GB][GB][GB] | 
[V:4] DGG | 
[V:1] d'e'f' | 
[V:2] [db][db][db] | 
[V:3] [GB][GB][GB] | 
[V:4] GGG | 
[V:1] g'a'b' | 
[V:2] [db][db][db] | 
[V:3] [GB][GB][GB] | 
[V:4] =FFF | 
[V:1] b'E^d | 
[V:2] [db][eb][eb] | 
[V:3] [^GB][GB][GB] | 
[V:4] EEE | 
[V:1] eE=d | 
[V:2] [eb][eb][eb] | 
[V:3] [^GB][GB][GB] | 
[V:4] EEE | 
[V:1] cEB | 
[V:2] [ec'][ec'][ec'] | 
[V:3] [Ac][Ac][Ac] | 
[V:4] EEE | 
[V:1] cEB | 
[V:2] [ec'][ec'][eb] | 
[V:3] [Ac]A^G | 
[V:4] EEE | 
[V:1] BEc | 
[V:2] [eb][eb][eb] | 
[V:3] ^G[GB][GB] | 
[V:4] EEE | 
[V:1] cEB | 
[V:2] [eb][eb][eb] | 
[V:3] [^GB][GB][GB] | 
[V:4] EEE | 
[V:1] BEc | 
[V:2] [eb][eb][eb] | 
[V:3] [^GB][GB][GB] | 
[V:4] EEE | 
[V:1] cEB | 
[V:2] [eb][eb][eb] | 
[V:3] [^GB][GB][GB] | 
[V:4] EEE | 
[V:1] Bbb | 
[V:2] [eb][e^g][eg] | 
[V:3] [^GB]^G,/F,/G,/A,/ | 
[V:4] E[K:clef=bass]E,/^D,/E,/F,/ | 
[V:1] bbb | 
[V:2] [e^g][eg][eg] | 
[V:3] B,^C/B,/C/D/ | 
[V:4] ^G,zz | 
[V:1] bbb | 
[V:2] [e^g][eg][eg] | 
[V:3] E^G/F/G/A/ | 
[V:4] [K:clef=tenor]zEE | 
[V:1] be'd' | 
[V:2] [e^g]F/E/F/^G/ | 
[V:3] BA/^G/A/B/ | 
[V:4] EEE | 
[V:1]  [K:A] .c'A,/G,/A,/B,/ | 
[V:2]  [K:A] Ac'c' | 
[V:3]  [K:A] [Ec][Ac][Ac] | 
[V:4]  [K:A] A,EE | 
[V:1] .C.D.E | 
[V:2] [ec'][ec'][ec'] | 
[V:3] [Ac][Ac][Ac] | 
[V:4] EEE | 
[V:1] .F.G.A | 
[V:2] [ec'][ec'][ec'] | 
[V:3] [Ac][Ac][Ac] | 
[V:4] EEE | 
[V:1] Bcd | 
[V:2] [ed'][ed'][ed'] | 
[V:3] [GB][GB][GB] | 
[V:4] EEE | 
[V:1] efg | 
[V:2] [ed'][ed'][ed'] | 
[V:3] [GB][GB][GB] | 
[V:4] EEE | 
[V:1] abc' | 
[V:2] [ed'][ed'][ed'] | 
[V:3] [GB][GB][GB] | 
[V:4] EEE | 
[V:1] d'ec' | 
[V:2] [eb]B/A/B/c/ | 
[V:3] [GB]G/F/G/A/ | 
[V:4] EEE | 
[V:1] d'ee' | 
[V:2] .dB/A/B/c/ | 
[V:3] .BG/F/G/A/ | 
[V:4] EEE | 
[V:1] c'[ee'][ee'] | 
[V:2] .c[ca][ca] | 
[V:3] .Azz | 
[V:4] [K:clef=bass]A,A,,/G,,/ A,,/B,,/ | 
[V:1] [ee'][ee'][ee'] | 
[V:2] [ca][ca][ca] | 
[V:3] zD,/C,/D,/E,/ | 
[V:4] .C,zz | 
[V:1] [ee'][ee'][ee'] | 
[V:2] [ca]G/F/G/A/ | 
[V:3] .F,G,/F,/G,/A,/ | 
[V:4] z3 | 
[V:1] [ee'][ee'][ee'] | 
[V:2] .B.c.d | 
[V:3] .[G,B,].A,.B, | 
[V:4] [K:clef=tenor]EEE | 
[V:1] [ee']fg | 
[V:2] .B.A.d | 
[V:3] .G.c.B | 
[V:4] EEE | 
[V:1] abc' | 
[V:2] ddd | 
[V:3] FGA | 
[V:4] EEE | 
[V:1] d'ec' | 
[V:2] d[db][db] | 
[V:3] [GB][GB][GB] | 
[V:4] EEE | 
[V:1] d'ee' | 
[V:2] [db][db][db] | 
[V:3] [GB][GB][GB] | 
[V:4] EEE | 
[V:1] .d'd'/e'/d'/c'/ | 
[V:2] [db][db][db] | 
[V:3] [GB][Ge][Ge] | 
[V:4] E[K:clef=bass]G,,/F,,/G,,/A,,/ | 
[V:1] .bB/c/B/A/ | 
[V:2] .dB,/A,/B,/C/ | 
[V:3] [Ge]G,/F,/G,/A,/ | 
[V:4] .B,,[K:clef=tenor]EE | 
[V:1] .GB/A/B/c/ | 
[V:2] .DG/F/G/A/ | 
[V:3] .B,D/E/D/C/ | 
[V:4] EEE | 
[V:1] .dd'/c'/d'/b/ | 
[V:2] .GF/E/F/G/ | 
[V:3] .B,F,/E,/F,/G,/ | 
[V:4] E[K:clef=bass]F,,/E,,/F,,/G,,/ | 
[V:1] .a.A.c' | 
[V:2] .AF/E/F/G/ | 
[V:3] .A,F,/E,/F,/G,/ | 
[V:4] .A,,F,,/E,,/F,,/G,,/ | 
[V:1] Ae'A | 
[V:2] .AF/E/F/G/ | 
[V:3] .A,F,/E,/F,/G,/ | 
[V:4] .A,,F,,/E,,/F,,/G,,/ | 
[V:1] e'Aa' | 
[V:2] AF/E/F/G/ | 
[V:3] A,F,/E,/F,/G,/ | 
[V:4] A,,F,,/E,,/F,,/G,,/ | 
[V:1] e'3- | 
[V:2] AF/E/F/G/ | 
[V:3] A,F,/E,/F,/G,/ | 
[V:4] A,,F,,/E,,/F,,/G,,/ | 
[V:1] e'.A.d' | 
[V:2] AF/E/F/G/ | 
[V:3] A,F,/E,/F,/G,/ | 
[V:4] A,,F,,/E,,/F,,/G,,/ | 
[V:1] .c'.A.d' | 
[V:2] AF/E/F/G/ | 
[V:3] A,F,/E,/F,/G,/ | 
[V:4] A,,F,,/E,,/F,,/G,,/ | 
[V:1] c'Ad' | 
[V:2] AF/E/F/G/ | 
[V:3] A,F,/E,/F,/G,/ | 
[V:4] A,,F,,/E,,/F,,/G,,/ | 
[V:1] c'Ab | 
[V:2] AF/E/F/G/ | 
[V:3] A,F,/E,/F,/G,/ | 
[V:4] A,,F,,/E,,/F,,/G,,/ | 
[V:1] aAc' | 
[V:2] AF/E/F/G/ | 
[V:3] A,F,/E,/F,/G,/ | 
[V:4] A,,F,,/E,,/F,,/G,,/ | 
[V:1] Ae'A | 
[V:2] AF/E/F/G/ | 
[V:3] A,F,/E,/F,/G,/ | 
[V:4] A,,F,,/E,,/F,,/G,,/ | 
[V:1] e'Aa' | 
[V:2] AF/E/F/G/ | 
[V:3] A,F,/E,/F,/G,/ | 
[V:4] A,,F,,/E,,/F,,/G,,/ | 
[V:1] e'3- | 
[V:2] AF/E/F/G/ | 
[V:3] A,F,/E,/F,/G,/ | 
[V:4] A,,F,,/E,,/F,,/G,,/ | 
[V:1] e'.A.d' | 
[V:2] AF/E/F/G/ | 
[V:3] A,F,/E,/F,/G,/ | 
[V:4] A,,F,,/E,,/F,,/G,,/ | 
[V:1] .c'.A.d' | 
[V:2] AF/E/F/G/ | 
[V:3] A,F,/E,/F,/G,/ | 
[V:4] A,,F,,/E,,/F,,/G,,/ | 
[V:1] c'Ad' | 
[V:2] AF/E/F/G/ | 
[V:3] A,F,/E,/F,/G,/ | 
[V:4] A,,F,,/E,,/F,,/G,,/ | 
[V:1] c'Ad' | 
[V:2] AF/E/F/G/ | 
[V:3] A,F,/E,/F,/G,/ | 
[V:4] A,,F,,/E,,/F,,/G,,/ | 
[V:1] d'Bc'3// c'// | 
[V:2] AF/E/F/G/ | 
[V:3] A,F,/E,/F,/G,/ | 
[V:4] A,,F,,/E,,/F,,/G,,/ | 
[V:1] .d'.B.e' | 
[V:2] AF/E/F/G/ | 
[V:3] A,F,/E,/F,/G,/ | 
[V:4] A,,F,,/E,,/F,,/G,,/ | 
[V:1] .c'.Ad' | 
[V:2] AF/E/F/G/ | 
[V:3] A,F,/E,/F,/G,/ | 
[V:4] A,,F,,/E,,/F,,/G,,/ | 
[V:1] c'e'a' | 
[V:2] AF/E/F/G/ | 
[V:3] A,F,/E,/F,/G,/ | 
[V:4] A,,F,,/E,,/F,,/G,,/ | 
[V:1] d'Bc'3// c'// | 
[V:2] AF/E/F/G/ | 
[V:3] A,F,/E,/F,/G,/ | 
[V:4] A,,F,,/E,,/F,,/G,,/ | 
[V:1] .d'.B.e' | 
[V:2] AF/E/F/G/ | 
[V:3] A,F,/E,/F,/G,/ | 
[V:4] A,,F,,/E,,/F,,/G,,/ | 
[V:1] c'Ae'3// e'// | 
[V:2] AF/E/F/G/ | 
[V:3] A,F,/E,/F,/G,/ | 
[V:4] A,,F,,/E,,/F,,/G,,/ | 
[V:1] a'A3/e'/ | 
[V:2] AF/E/F/G/ | 
[V:3] A,F,/E,/F,/G,/ | 
[V:4] A,,F,,/E,,/F,,/G,,/ | 
[V:1] d'Bc'3/8 c'/8 | 
[V:2] AF/E/F/G/ | 
[V:3] A,F,/E,/F,/G,/ | 
[V:4] A,,F,,/E,,/F,,/G,,/ | 
[V:1] .d'.B.e' | 
[V:2] AF/E/F/G/ | 
[V:3] A,F,/E,/F,/G,/ | 
[V:4] A,,F,,/E,,/F,,/G,,/ | 
[V:1] c'Ad' | 
[V:2] AF/E/F/G/ | 
[V:3] A,F,/E,/F,/G,/ | 
[V:4] A,,F,,/E,,/F,,/G,,/ | 
[V:1] c'e'a' | 
[V:2] AF/E/F/G/ | 
[V:3] A,F,/E,/F,/G,/ | 
[V:4] A,,F,,/E,,/F,,/G,,/ | 
[V:1] d'Bc'3/8 c'/8 | 
[V:2] AF/E/F/G/ | 
[V:3] A,F,/E,/F,/G,/ | 
[V:4] A,,F,,/E,,/F,,/G,,/ | 
[V:1] .d'.B.e' | 
[V:2] AF/E/F/G/ | 
[V:3] A,F,/E,/F,/G,/ | 
[V:4] A,,F,,/E,,/F,,/G,,/ | 
[V:1] c'Ae'3/8 e'/8 | 
[V:2] AF/E/F/G/ | 
[V:3] A,F,/E,/F,/G,/ | 
[V:4] A,,F,,/E,,/F,,/G,,/ | 
[V:1] a'A3/e'/ | 
[V:2] AF/E/F/G/ | 
[V:3] A,F,/E,/F,/G,/ | 
[V:4] A,,F,,/E,,/F,,/G,,/ | 
[V:1] .d'.B.e' | 
[V:2] AF/E/F/G/ | 
[V:3] A,F,/E,/F,/G,/ | 
[V:4] A,,F,,/E,,/F,,/G,,/ | 
[V:1] c'Ae' | 
[V:2] AF/E/F/G/ | 
[V:3] A,F,/E,/F,/G,/ | 
[V:4] A,,F,,/E,,/F,,/G,,/ | 
[V:1] d'Be'3/8 e'/8 | 
[V:2] AF/E/F/G/ | 
[V:3] A,F,/E,/F,/G,/ | 
[V:4] A,,F,,/E,,/F,,/G,,/ | 
[V:1] a'A3/e'/ | 
[V:2] AF/E/F/G/ | 
[V:3] A,F,/E,/F,/G,/ | 
[V:4] A,,F,,/E,,/F,,/G,,/ | 
[V:1] .d'.B.e' | 
[V:2] AF/E/F/G/ | 
[V:3] A,F,/E,/F,/G,/ | 
[V:4] A,,F,,/E,,/F,,/G,,/ | 
[V:1] c'Ae' | 
[V:2] AF/E/F/G/ | 
[V:3] A,F,/E,/F,/G,/ | 
[V:4] A,,F,,/E,,/F,,/G,,/ | 
[V:1] c'Ae'3/8 e'/8 | 
[V:2] AF/E/F/G/ | 
[V:3] A,F,/E,/F,/G,/ | 
[V:4] A,,F,,/E,,/F,,/G,,/ | 
[V:1] a'A2 | 
[V:2] AF/E/F/G/ | 
[V:3] A,F,/E,/F,/G,/ | 
[V:4] A,,F,,/E,,/F,,/G,,/ | 
[V:1] cA,e3/8 e/8 | 
[V:2] AF/E/F/G/ | 
[V:3] A,F,/E,/F,/G,/ | 
[V:4] A,,F,,/E,,/F,,/G,,/ | 
[V:1] a/A/-[A,2A2] | 
[V:2] AF/E/F/G/ | 
[V:3] A,F,/E,/F,/G,/ | 
[V:4] A,,F,,/E,,/F,,/G,,/ | 
[V:1] c'Ae'3/8e'/8 | 
[V:2] AF/E/F/G/ | 
[V:3] A,F,/E,/F,/G,/ | 
[V:4] A,,F,,/E,,/F,,/G,,/ | 
[V:1] a'A-A3/8E/8 | 
[V:2] AF/E/F/G/ | 
[V:3] A,F,/E,/F,/G,/ | 
[V:4] A,,F,,/E,,/F,,/G,,/ | 
[V:1] AA,-A,3/8E/8 | 
[V:2] AF/E/F/G/ | 
[V:3] A,F,/E,/F,/G,/ | 
[V:4] A,,F,,/E,,/F,,/G,,/ | 
[V:1] AA,2- | 
[V:2] AF/E/F/G/ | 
[V:3] A,F,/E,/F,/G,/ | 
[V:4] A,,F,,/E,,/F,,/G,,/ | 
[V:1] A,F/E/F/G/ | 
[V:2] AF/E/F/G/ | 
[V:3] A,F,/E,/F,/G,/ | 
[V:4] A,,F,,/E,,/F,,/G,,/ | 
[V:1] .AF/E/F/=G/ | 
[V:2] .AF/E/F/=G/ | 
[V:3] .A,F,/E,/F,/=G,/ | 
[V:4] .A,,F,,/E,,/F,,/=G,,/ | 
[V:1] .AF/E/=F/=G/ | 
[V:2] .AF/E/=F/=G/ | 
[V:3] .A,F,/E,/=F,/=G,/ | 
[V:4] .A,,F,,/E,,/=F,,/=G,,/ | 
[V:1]  [K:F] .AF/E/F/G/- | 
[V:2]  [K:F] .AF/E/F/G/- | 
[V:3]  [K:F] .A,F,/E,/F,/G,/- | 
[V:4]  [K:F] .A,,F,,/E,,/F,,/G,,/- | 
[V:1] GA2- | 
[V:2] GA2- | 
[V:3] G,A,2- | 
[V:4] G,,A,,2- | 
[V:1] AG2- | 
[V:2] AG2- | 
[V:3] A,G,2- | 
[V:4] A,,G,,2- | 
[V:1] GF2- | 
[V:2] GF2- | 
[V:3] G,F,2- | 
[V:4] G,,F,,2- | 
[V:1] FG2- | 
[V:2] FG2- | 
[V:3] F,G,2- | 
[V:4] F,,G,,2- | 
[V:1] Gg2- | 
[V:2] GG2- | 
[V:3] G,G,2- | 
[V:4] G,,G,2- | 
[V:1] gg'2- | 
[V:2] Gg2- | 
[V:3] G,G2- | 
[V:4] G,G2- | 
[V:1] g'g2- | 
[V:2] gG2- | 
[V:3] GG,2- | 
[V:4] GG,2- | 
[V:1] gG2- | 
[V:2] GG,C- | 
[V:3] G,G,2 | 
[V:4] G,G,,2 | 
[V:1] GA2- | 
[V:2] C2C- | 
[V:3] F,3 | 
[V:4] .F,,z.A,, | 
[V:1] AG2- | 
[V:2] C2C- | 
[V:3] E,3 | 
[V:4] .B,,z.C, | 
[V:1] GF2- | 
[V:2] C2C- | 
[V:3] F,3 | 
[V:4] D,zC, | 
[V:1] FG2- | 
[V:2] C2C- | 
[V:3] E,3 | 
[V:4] B,,zG,, | 
[V:1] GA2- | 
[V:2] C2C- | 
[V:3] F,3 | 
[V:4] F,,zA,, | 
[V:1] AG2- | 
[V:2] C2C | 
[V:3] E,3 | 
[V:4] B,,zC, | 
[V:1] .G.F.G | 
[V:2] .A,.A,.E | 
[V:3] .F,.F,.E, | 
[V:4] .D,.D,,.C,, | 
[V:1] .Fzc'- | 
[V:2] .A,.f.g | 
[V:3] .F,.A.e | 
[V:4] .F,,.D.C | 
[V:1] c'2c'- | 
[V:2] .fa2- | 
[V:3] .A.F,F- | 
[V:4] FzA, | 
[V:1] c'2c'- | 
[V:2] ag2- | 
[V:3] FEB | 
[V:4] B,zC | 
[V:1] c'2c'- | 
[V:2] gf2- | 
[V:3] AA,A | 
[V:4] DzC | 
[V:1] c'2c'- | 
[V:2] fg2- | 
[V:3] DBE | 
[V:4] B,zG, | 
[V:1] c'2c'- | 
[V:2] ga2- | 
[V:3] ACF- | 
[V:4] F,zA, | 
[V:1] c'2c'- | 
[V:2] ag2- | 
[V:3] FE,E | 
[V:4] B,zC | 
[V:1] .c'.d'.e' | 
[V:2] .g.f.g | 
[V:3] A,AC | 
[V:4] DD,C, | 
[V:1] .f'!accent!_E2 ]|:  
[V:2] .f!accent!_E2 ]|:  
[V:3] F,!accent!_E,2 ]|:  
[V:4] F,!accent!_E,,2 ]|:  
[V:1] z3 | 
[V:2] z3 | 
[V:3] z_E,2 | 
[V:4] z_E,,2 | 
[V:1] z3 | 
[V:2] z3 | 
[V:3] _E,2E, | 
[V:4] _E,,2E,, | 
[V:1] z_E2 | 
[V:2] z_E2 | 
[V:3] z_E,2 | 
[V:4] z_E,,2 | 
[V:1] _E2E | 
[V:2] _E2E | 
[V:3] _E,2E, | 
[V:4] _E,,2E,, | 
[V:1] z_E2 | 
[V:2] z_E2 | 
[V:3] z_E,2 | 
[V:4] z_E,,2 | 
[V:1] z_E2 | 
[V:2] z_E2 | 
[V:3] z_E,2 | 
[V:4] z_E,,2 | 
[V:1] z=E2 | 
[V:2] z=E2 | 
[V:3] z=E,2 | 
[V:4] z=E,,2 | 
[V:1] zE2 | 
[V:2] zE2 | 
[V:3] zE,2 | 
[V:4] zC,,2- | 
[V:1] zA2- | 
[V:2] zzF- | 
[V:3] F,[C,-C,][C,-A,] | 
[V:4] C,,2C,,- | 
[V:1] AG2- | 
[V:2] F2E | 
[V:3] [C,=B,][C,-C,][C,-C] | 
[V:4] C,,2C,,- | 
[V:1] GF2- | 
[V:2] A,2_A, | 
[V:3] [C,D][C,-C,][C,-C] | 
[V:4] C,,2C,,- | 
[V:1] FG2- | 
[V:2] D2E- | 
[V:3] [C,=B,]C,[_D,_B,] | 
[V:4] C,,2C,,- | 
[V:1] GA2- | 
[V:2] EA,F- | 
[V:3] [C,A,][C,-C,][C,-A,] | 
[V:4] C,,2C,,- | 
[V:1] AG2- | 
[V:2] FFE | 
[V:3] [C,=B,][C,-C,][C,-C] | 
[V:4] C,,2C,,- | 
[V:1] G.F.G | 
[V:2] _A,-[A,D][G,E] | 
[V:3] [C,=B,][C,-C,][C,-_B,] | 
[V:4] C,,2C,,- | 
[V:1] .Fzz | 
[V:2] A,zz | 
[V:3] [C,A,].F,G,- | 
[V:4] C,,.F,,G,,- | 
[V:1] .fz.a | 
[V:2] .Fz.A | 
[V:3] G,A,2- | 
[V:4] G,,A,,2- | 
[V:1] .bzc' | 
[V:2] .Bzc | 
[V:3] A,G,2- | 
[V:4] A,,G,,2- | 
[V:1] d'zc' | 
[V:2] dzc | 
[V:3] G,F,2- | 
[V:4] G,,F,,2- | 
[V:1] bzg | 
[V:2] BzG | 
[V:3] F,G,2- | 
[V:4] F,,G,,2- | 
[V:1] fza | 
[V:2] FzA | 
[V:3] G,A,2- | 
[V:4] G,,A,,2- | 
[V:1] bzc' | 
[V:2] Bzc | 
[V:3] A,G,2- | 
[V:4] A,,G,,2- | 
[V:1] d'zc' | 
[V:2] dz[Ec] | 
[V:3] G,.F,.G, | 
[V:4] G,,.F,,.G,, | 
[V:1] .c'.c'._e' | 
[V:2] .[Ac].c.A | 
[V:3] .F,.A,.F, | 
[V:4] .F,,zz | 
[V:1] .d'zz | 
[V:2] .Fzz | 
[V:3] .B,zz | 
[V:4] z.F,,.G,, | 
[V:1] z.=e'.f' | 
[V:2] z.[Fd].[Fd] | 
[V:3] z.B,.B, | 
[V:4] .F,,zz | 
[V:1] .c'zz | 
[V:2] Afg | 
[V:3] FFG | 
[V:4] z.F,,._E,, | 
[V:1] zd'c' | 
[V:2] ^fba | 
[V:3] ^FGA | 
[V:4] .D,,.=E,,.^F,, | 
[V:1] .c'.b.a | 
[V:2] .a.g.f | 
[V:3] DEC | 
[V:4] G,,G,,A,, | 
[V:1] ab.g | 
[V:2] fd.[Be] | 
[V:3] DG,.C | 
[V:4] B,,B,,C, | 
[V:1] .a.f.g | 
[V:2] .A.F.G | 
[V:3] Czz | 
[V:4] F,,zz | 
[V:1] fzz | 
[V:2] Fzz | 
[V:3] z.A,.C | 
[V:4] z.C._E | 
[V:1] zfg | 
[V:2] zFG | 
[V:3] B,zz | 
[V:4] Dzz | 
[V:1] fzz | 
[V:2] Fzz | 
[V:3] zB,B, | 
[V:4] zEF | 
[V:1] zfg | 
[V:2] zFG | 
[V:3] A,zz | 
[V:4] Czz | 
[V:1] f^fg | 
[V:2] F^FG | 
[V:3] zCB, | 
[V:4] z_ED | 
[V:1] ggc' | 
[V:2] GGc | 
[V:3] B,A,G, | 
[V:4] .D.C.B, | 
[V:1] c'c'c' | 
[V:2] ccc | 
[V:3] F,G,E, | 
[V:4] A,B,.G, | 
[V:1] .c'.b.a | 
[V:2] .c.C.c | 
[V:3] .F,.E.F | 
[V:4] .A,.G,.A, | 
[V:1] ab.g | 
[V:2] c[Gd].E | 
[V:3] DD,.E, | 
[V:4] B,B,,.C, | 
[V:1] ga.f | 
[V:2] BA.[FA] | 
[V:3] E,F,.A, | 
[V:4] .C,.C,,.C,, | 
[V:1] ef.g | 
[V:2] GF.E | 
[V:3] B,A,.G, | 
[V:4] .C,,.C,,.C,, | 
[V:1] ef.g | 
[V:2] .B.B,.B | 
[V:3] G,F,.E, | 
[V:4] C,,D,,.E,, | 
[V:1] ccc | 
[V:2] .A.G.F | 
[V:3] .A,.B,.C | 
[V:4] .F,,.G,,.A,, | 
[V:1] ef.g | 
[V:2] B,BB | 
[V:3] G,F,.E, | 
[V:4] C,,D,,.E,, | 
[V:1] ccc | 
[V:2] .A.G.F | 
[V:3] .A,.B,.C | 
[V:4] .F,,.G,,.A,, | 
[V:1] ef.g | 
[V:2] B,BB | 
[V:3] G,F,.E, | 
[V:4] C,,D,,.E,, | 
[V:1] ccc | 
[V:2] .A.G.F | 
[V:3] .A,.B,.C | 
[V:4] .F,,.G,,.A,, | 
[V:1] ef.g |[1 
[V:2] B,BB | 
[V:3] G,F,.E, | 
[V:4] C,,D,,.E,, | 
[V:1] c!accent!_E2 :|][2 
[V:2] A!accent!_E2 :|]  
[V:3] F,!accent!_E,2 :|]  
[V:4] F,,!accent!_E,,2 :|]  
[V:1] czz | 
[V:2] A!accent!A,2 | 
[V:3] F,!accent![C,2C2] | 
[V:4] F,,!accent![F,,2A,,2] | 
[V:1] z3 | 
[V:2] zA,2 | 
[V:3] z[C,2C2] | 
[V:4] z[F,,2A,,2] | 
[V:1] z3 | 
[V:2] A,2A, | 
[V:3] [C,2C2][C,C] | 
[V:4] [F,,2A,,2][F,,A,,] | 
[V:1] zc'2 | 
[V:2] z[c2a2] | 
[V:3] zA2 | 
[V:4] z[K:clef=tenor]F2 | 
[V:1] c'2c' | 
[V:2] [c2a2][ca] | 
[V:3] A2A | 
[V:4] F2F | 
[V:1] zc'2 | 
[V:2] z[c2a2] | 
[V:3] zA2 | 
[V:4] zF2 | 
[V:1] c'!fermata!zz |]  
[V:2] [ca]!fermata!zz |]  
[V:3] [FA]!fermata!zz |]  
[V:4] F!fermata!zz |]  


